X:1
T:Title
%%score { 1 | 2 }
L:1/8
Q:1/4=116
M:2/2
K:C
V:1 treble nm="Grand Piano"
V:2 bass 
V:1
 [EG]4 [CE]2 [EG]2 | [FA]4 [EG]4 | B4 A2 G2 | [FA]4 [EG]4 | [Ge]4 [Gd]2 [Gc]2 | [Fd]4 [CFA]4 | %6
w: B.~E.~Warren * *||||||
 [CEG]4 [B,DA]2 [G,B,G]2 | [G,CE]8 | [CEG]4 [G,CE]2 [EG]2 | [FA]4 [EG]4 | B4 A2 G2 | [FA]4 [EG]4 | %12
w: ||||||
 [Ge]4 [Gd]2 [Gc]2 | d4 A4 | G4 A2 B2 | [Ec]8 | [Ge]4 [Fd]2 [Ec]2 | [EG]4 [CE]4 | %18
w: ||||||
 [DF]4 [B,G]2 [DF]2 | [CE]4 [EG]4 | A4 A2 A2 | [FB]4 [FB]2 [Gc]2 | [Ge]4 [Fd]2 [Fd]2 | [Ec]8 |] %24
w: ||||||
V:2
 [C,C]4 [C,G,]2 [C,C]2 | [C,C]4 [C,C]4 | [G,DF]4 [G,CF]2 [G,B,F]2 | [C,C]4 [C,C]4 | %4
 [C,C]4 [D,B,]2 [E,_B,]2 | [F,A,]4 F,4 | G,4 G,,2 G,,2 | C,8 | C,4 C,2 [C,C]2 | [C,C]4 [C,C]4 | %10
 [G,DF]4 [G,CF]2 [G,B,F]2 | [C,C]4 [C,C]4 | [C,C]4 [D,B,]2 [E,_B,]2 | [F,A,F]4 [F,CF]4 | %14
 [G,B,F]4 [G,CF]2 [G,DF]2 | [C,C]8 | [C,C]4 [C,G,]2 [C,G,]2 | [C,C]4 [C,G,]4 | %18
 [G,,G,]4 [G,,G,]2 [B,,G,]2 | [C,G,]4 [C,C]4 | [F,CF]4 [F,CF]2 [F,CF]2 | [D,G,]4 [D,G,]2 [E,C]2 | %22
 [G,C]4 [G,,B,]2 [G,,G,]2 | [C,G,]8 |] %24

